src/img/channel/channel_47.svg

<svg fill="none" height="101" viewBox="0 0 160 101" width="160" xmlns="http://www.w3.org/2000/svg"><path d="m7.70393 36.5327h69.95227l-7.7111 27.5002h-69.9451z" fill="#1e59ae"/><path d="m77.3226 36.5327h82.6774l-7.704 27.5002h-82.6773z" fill="#f7f7fc"/><path d="m35.2485 68.5707h.0072v5.2821h6.4414v.0072l-6.4414 2.9665v5.2893c0 .0072 0 .0072-.0072.0072l-4.4832-3.229-7.0081 3.2218c-.0072 0 0-.0072 0-.0072l4.3576-5.1311-4.3576-3.1175c-.0072 0-.0072 0-.0072-.0072h.0072 7.0081zm11.7532 13.3473h.0071v.0072 5.275h6.4415v.0072l-6.4415 2.9664v5.2894c0 .0072-.0071.0072-.0071.0072l-4.4832-3.229-7.0082 3.2218c0 .0072 0 0-.0071 0l.0071-.0072 4.3577-5.1311-4.3577-3.1175c-.0071 0-.0071-.0072-.0071-.0072h.0071 7.0082zm20.9849 4.8687h.0072v.0071 5.275h6.4414v.0072l-6.4414 2.9665v5.2895c0 .007-.0072.007-.0072.007l-4.4832-3.229-7.0081 3.229s0 0-.0072-.007l.0072-.007 4.3577-5.1315-4.3577-3.1175c-.0072 0-.0072 0-.0072-.0072h.0072 7.0081zm24.0479-5.1599h.0072v.0072 5.2749h6.4414v.0072l-6.4414 2.9665v5.2893c0 .0072 0 .0072-.0072.0072l-4.4832-3.229-7.0081 3.2218v-.0072l4.3576-5.1311-4.3576-3.1175-.0072-.0072h.0072 7.0081zm23.3195-13.0561h.007v5.2821h6.442v.0072l-6.442 2.9665v5.2893c0 .0072 0 .0072-.007.0072l-4.483-3.229-7.008 3.2218s0 0-.007 0l.007-.0072 4.358-5.1311-4.358-3.1175c-.007 0-.007 0-.007-.0072h.007 7.008zm-60.7955-50.797h.0072v5.2822h6.4415v.0071l-6.4415 2.9665v5.2893c0 .0072-.0072.0072-.0072.0072l-4.4832-3.2289-7.0081 3.2217c-.0072 0 0-.0071 0-.0071l4.3577-5.1348-4.3577-3.1103c-.0072 0-.0072-.0072-.0072-.0072h.0072 7.0081zm22.538-12.43044h.0072v.00719 5.27495h6.4414v.0072l-6.4414 2.9665v5.2893c0 .0072-.0072.0072-.0072.0072l-4.4832-3.229-7.0082 3.2218s0 0-.0071 0l.0071-.0072 4.3577-5.1383-4.3577-3.1103c-.0071 0-.0071-.0072-.0071-.0072h.0071 7.0082zm23.5025-5.34326h.007v.00719147 5.27493853h6.442v.0072l-6.442 2.96648v5.28929c0 .0072-.007.0072-.007.0072l-4.483-3.2289-7.0081 3.2217c0 .0072-.0072 0-.0072 0s0-.0072.0072-.0072l4.3576-5.13107-4.3648-3.1175s0 0 0-.0072h.0072 7.0081zm20.497 5.37203h.008v.00719 5.27498h6.441v.0072l-6.445 2.9664v5.2894c0 .0072 0 .0072-.007.0072l-4.483-3.229-7.005 3.2218c-.007 0 0-.0072 0-.0072l4.358-5.1383-4.358-3.1103c-.007 0-.007-.0072-.007-.0072h.007 7.008zm13.339 12.37647h.007v5.2822h6.434.007v.0072l-6.441 2.9665v5.2893c0 .0072-.007.0072-.007.0072l-4.483-3.229-7.009 3.2218c-.007 0 0-.0072 0-.0072l4.358-5.1383-4.358-3.1103c-.007 0-.007-.0072-.007-.0072h.007 7.009z" fill="#1e59ae"/><path d="m134.808 60.5521-1.194-8.5686c2.378-.9529 3.54-3.0096 4.275-5.6202 1.029-3.6388.628-6.1954-4.186-6.1954h-2.51-3.892l-5.749 20.4202h3.892l2.263-8.0293h1.936l1.008 7.9933zm-4.896-16.9503h2.69c2.167 0 2.098 1.2657 1.675 2.758-.419 1.4922-1.069 2.7651-3.235 2.7651h-2.69zm-28.922-3.4483h-2.5102-3.8915l-5.7528 20.413h3.8914l2.2631-8.0293h2.5106c4.8134 0 6.6564-2.5529 7.6754-6.1882 1.026-3.6425.628-6.1955-4.186-6.1955zm-2.6573 8.9534h-2.6971l1.5602-5.5267h2.6899c2.1663 0 2.0983 1.2729 1.6753 2.7652-.42 1.4958-1.069 2.7615-3.2283 2.7615zm-11.8033-3.6281c-.1112-1.9237-.807-2.4199-2.1592-2.4199-1.3736 0-2.2846.5249-2.6755 1.9093-.8608 3.078 7.4564 4.2609 5.6631 10.6434-.9863 3.4986-3.8483 5.1778-7.9263 5.1778-3.1525 0-5.2005-1.4095-5.1108-5.4151l4.0564-.8163c-.2403 2.4559 1.0078 3.0097 2.1591 3.0097 1.345 0 2.5536-.5826 2.9804-2.1107 1.0904-3.8367-7.2843-4.8471-5.6775-10.5535.9863-3.4987 3.5041-5.07 7.5246-5.07 3.4539 0 5.075 1.7439 4.9387 4.6277zm19.1736 9.126c-1.42 5.0268.897 6.1954 4.663 6.1954s6.739-1.1686 8.152-6.1954l2.414-8.5543c1.413-5.0268-.897-6.1954-4.663-6.1954s-6.739 1.1686-8.152 6.1954zm6.345-8.7484c.635-2.2546 1.703-2.5602 3.249-2.5602s2.443.3056 1.808 2.5602l-2.518 8.9353c-.642 2.2618-1.704 2.5638-3.257 2.5638-1.545 0-2.442-.3056-1.807-2.5638zm43.085-5.7029-.972 3.4447h-4.526l-4.774 16.9395h-3.877l4.774-16.9395h-4.526l.971-3.4447z" fill="#ee114b"/><path d="m55.2223 54.6049c-1.4131 5.0269.8966 6.1955 4.6625 6.1955s6.7391-1.1686 8.1523-6.1955l2.4137-8.5542c1.4131-5.0269-.8966-6.1955-4.6625-6.1955s-6.7392 1.1686-8.1523 6.1955zm6.3482-8.7484c.6348-2.2545 1.7036-2.5602 3.2494-2.5602s2.4496.3057 1.8076 2.5602l-2.5177 8.9354c-.6349 2.2617-1.7036 2.5638-3.2495 2.5638-1.5529 0-2.4496-.3057-1.8076-2.5638zm-56.07587 14.6958 5.74567-20.3842h10.6234l-.9648 3.4519h-6.7463l-1.3235 4.6816h5.1468l-.9756 3.4411h-5.1467l-1.5099 5.3649h7.0296l-.9719 3.4447zm23.83267-20.3986-4.1102 14.5771c-.5451 1.9417.0969 2.6428 1.9798 2.6428s2.9517-.6975 3.5041-2.6428l4.1102-14.5771h3.877l-4.207 14.9223c-1.2625 4.4874-4.2608 5.7388-8.2491 5.7388-3.9918 0-6.2549-1.2514-4.9853-5.7388l4.207-14.9223zm21.0782 20.3986-1.1943-8.5687c2.3779-.9528 3.5399-3.0096 4.2752-5.6201 1.0293-3.6389.6276-6.1954-4.1855-6.1954h-2.5106-3.8914l-5.7493 20.4201h3.8914l2.2631-8.0292h1.9368l1.0078 7.9933zm-4.8956-16.9503h2.6899c2.1663 0 2.0981 1.2657 1.6749 2.7579-.4196 1.4922-1.0688 2.7651-3.2351 2.7651h-2.6899z" fill="#fff"/></svg>

<svg width="160" height="101" viewBox="0 0 160 101" fill="none" xmlns="http://www.w3.org/2000/svg">
<path d="M7.70393 36.5327H77.6562L69.9451 64.0329H0L7.70393 36.5327Z" fill="#1E59AE"/>
<path d="M77.3226 36.5327H160L152.296 64.0329H69.6187L77.3226 36.5327Z" fill="#F7F7FC"/>
<path d="M35.2485 68.5707C35.2485 68.5707 35.2485 68.5707 35.2557 68.5707V73.8528H41.6971C41.6971 73.86 41.6971 73.86 41.6971 73.86L35.2557 76.8265V82.1158C35.2557 82.123 35.2557 82.123 35.2485 82.123L30.7653 78.894L23.7572 82.1158C23.75 82.1158 23.7572 82.1086 23.7572 82.1086L28.1148 76.9775L23.7572 73.86C23.75 73.86 23.75 73.86 23.75 73.8528C23.75 73.8528 23.75 73.8528 23.7572 73.8528H30.7653L35.2485 68.5707ZM47.0017 81.918C47.0017 81.918 47.0017 81.918 47.0088 81.918V81.9252V87.2002H53.4503C53.4503 87.2074 53.4503 87.2074 53.4503 87.2074L47.0088 90.1738V95.4632C47.0088 95.4704 47.0017 95.4704 47.0017 95.4704L42.5185 92.2414L35.5103 95.4632C35.5103 95.4704 35.5103 95.4632 35.5032 95.4632L35.5103 95.456L39.868 90.3249L35.5103 87.2074C35.5032 87.2074 35.5032 87.2002 35.5032 87.2002C35.5032 87.2002 35.5032 87.2002 35.5103 87.2002H42.5185L47.0017 81.918ZM67.9866 86.7867C67.9866 86.7867 67.9866 86.7867 67.9938 86.7867V86.7938V92.0688H74.4352C74.4352 92.076 74.4352 92.076 74.4352 92.076L67.9938 95.0425V100.332C67.9938 100.339 67.9866 100.339 67.9866 100.339L63.5034 97.11L56.4953 100.339C56.4953 100.339 56.4953 100.339 56.4881 100.332L56.4953 100.325L60.853 95.1935L56.4953 92.076C56.4881 92.076 56.4881 92.076 56.4881 92.0688C56.4881 92.0688 56.4881 92.0688 56.4953 92.0688H63.5034L67.9866 86.7867ZM92.0345 81.6268H92.0417V81.634V86.9089H98.4831V86.9161L92.0417 89.8826V95.1719C92.0417 95.1791 92.0417 95.1791 92.0345 95.1791L87.5513 91.9501L80.5432 95.1719C80.5432 95.1791 80.5432 95.1719 80.5432 95.1719V95.1647L84.9008 90.0336L80.5432 86.9161L80.536 86.9089H80.5432H87.5513L92.0345 81.6268ZM115.354 68.5707H115.361V73.8528H121.803C121.803 73.86 121.803 73.86 121.803 73.86L115.361 76.8265V82.1158C115.361 82.123 115.361 82.123 115.354 82.123L110.871 78.894L103.863 82.1158C103.863 82.1158 103.863 82.1158 103.856 82.1158L103.863 82.1086L108.221 76.9775L103.863 73.86C103.856 73.86 103.856 73.86 103.856 73.8528C103.856 73.8528 103.856 73.8528 103.863 73.8528H110.871L115.354 68.5707ZM54.5585 17.7737C54.5585 17.7737 54.5585 17.7737 54.5657 17.7737V23.0559H61.0072V23.063L54.5657 26.0295V31.3188C54.5657 31.326 54.5585 31.326 54.5585 31.326L50.0753 28.0971L43.0672 31.3188C43.06 31.3188 43.0672 31.3117 43.0672 31.3117L47.4249 26.1769L43.0672 23.0666C43.06 23.0666 43.06 23.0594 43.06 23.0594C43.06 23.0594 43.06 23.0594 43.0672 23.0594H50.0753L54.5585 17.7737ZM77.0965 5.34326C77.0965 5.34326 77.0965 5.34326 77.1037 5.34326V5.35045V10.6254H83.5451V10.6326L77.1037 13.5991V18.8884C77.1037 18.8956 77.0965 18.8956 77.0965 18.8956L72.6133 15.6666L65.6051 18.8884C65.6051 18.8884 65.6051 18.8884 65.598 18.8884L65.6051 18.8812L69.9628 13.7429L65.6051 10.6326C65.598 10.6326 65.598 10.6254 65.598 10.6254C65.598 10.6254 65.598 10.6254 65.6051 10.6254H72.6133L77.0965 5.34326ZM100.599 0C100.599 0 100.599 0 100.606 0V0.00719147V5.28213H107.048C107.048 5.28933 107.048 5.28933 107.048 5.28933L100.606 8.25581V13.5451C100.606 13.5523 100.599 13.5523 100.599 13.5523L96.116 10.3234L89.1079 13.5451C89.1079 13.5523 89.1007 13.5451 89.1007 13.5451C89.1007 13.5451 89.1007 13.5379 89.1079 13.5379L93.4655 8.40683L89.1007 5.28933C89.1007 5.28933 89.1007 5.28933 89.1007 5.28213C89.1007 5.28213 89.1007 5.28213 89.1079 5.28213H96.116L100.599 0ZM121.096 5.37203C121.096 5.37203 121.096 5.37203 121.104 5.37203V5.37922V10.6542H127.545V10.6614L121.1 13.6278V18.9172C121.1 18.9244 121.1 18.9244 121.093 18.9244L116.61 15.6954L109.605 18.9172C109.598 18.9172 109.605 18.91 109.605 18.91L113.963 13.7717L109.605 10.6614C109.598 10.6614 109.598 10.6542 109.598 10.6542C109.598 10.6542 109.598 10.6542 109.605 10.6542H116.613L121.096 5.37203ZM134.435 17.7485C134.435 17.7485 134.435 17.7485 134.442 17.7485V23.0307H140.876H140.883V23.0379L134.442 26.0044V31.2937C134.442 31.3009 134.435 31.3009 134.435 31.3009L129.952 28.0719L122.943 31.2937C122.936 31.2937 122.943 31.2865 122.943 31.2865L127.301 26.1482L122.943 23.0379C122.936 23.0379 122.936 23.0307 122.936 23.0307C122.936 23.0307 122.936 23.0307 122.943 23.0307H129.952L134.435 17.7485Z" fill="#1E59AE"/>
<path d="M134.808 60.5521L133.614 51.9835C135.992 51.0306 137.154 48.9739 137.889 46.3633C138.918 42.7245 138.517 40.1679 133.703 40.1679H131.193H127.301L121.552 60.5881H125.444L127.707 52.5588H129.643L130.651 60.5521H134.808ZM129.912 43.6018H132.602C134.769 43.6018 134.7 44.8675 134.277 46.3598C133.858 47.852 133.208 49.1249 131.042 49.1249H128.352L129.912 43.6018ZM100.99 40.1535H98.4798H94.5883L88.8355 60.5665H92.7269L94.99 52.5372H97.5006C102.314 52.5372 104.157 49.9843 105.176 46.349C106.202 42.7065 105.804 40.1535 100.99 40.1535ZM98.3327 49.1069H95.6356L97.1958 43.5802H99.8857C102.052 43.5802 101.984 44.8531 101.561 46.3454C101.141 47.8412 100.492 49.1069 98.3327 49.1069ZM86.5294 45.4788C86.4182 43.5551 85.7224 43.0589 84.3702 43.0589C82.9966 43.0589 82.0856 43.5838 81.6947 44.9682C80.8339 48.0462 89.1511 49.2291 87.3578 55.6116C86.3715 59.1102 83.5095 60.7894 79.4315 60.7894C76.279 60.7894 74.231 59.3799 74.3207 55.3743L78.3771 54.558C78.1368 57.0139 79.3849 57.5677 80.5362 57.5677C81.8812 57.5677 83.0898 56.9851 83.5166 55.457C84.607 51.6203 76.2323 50.6099 77.8391 44.9035C78.8254 41.4048 81.3432 39.8335 85.3637 39.8335C88.8176 39.8335 90.4387 41.5774 90.3024 44.4612L86.5294 45.4788ZM105.703 54.6048C104.283 59.6316 106.6 60.8002 110.366 60.8002C114.132 60.8002 117.105 59.6316 118.518 54.6048L120.932 46.0505C122.345 41.0237 120.035 39.8551 116.269 39.8551C112.503 39.8551 109.53 41.0237 108.117 46.0505L105.703 54.6048ZM112.048 45.8564C112.683 43.6018 113.751 43.2962 115.297 43.2962C116.843 43.2962 117.74 43.6018 117.105 45.8564L114.587 54.7917C113.945 57.0535 112.883 57.3555 111.33 57.3555C109.785 57.3555 108.888 57.0499 109.523 54.7917L112.048 45.8564ZM155.133 40.1535L154.161 43.5982H149.635L144.861 60.5377H140.984L145.758 43.5982H141.232L142.203 40.1535H155.133Z" fill="#EE114B"/>
<path d="M55.2223 54.6049C53.8092 59.6318 56.1189 60.8004 59.8848 60.8004C63.6507 60.8004 66.6239 59.6318 68.0371 54.6049L70.4508 46.0507C71.8639 41.0238 69.5542 39.8552 65.7883 39.8552C62.0224 39.8552 59.0491 41.0238 57.636 46.0507L55.2223 54.6049ZM61.5705 45.8565C62.2053 43.602 63.2741 43.2963 64.8199 43.2963C66.3657 43.2963 67.2695 43.602 66.6275 45.8565L64.1098 54.7919C63.4749 57.0536 62.4062 57.3557 60.8603 57.3557C59.3074 57.3557 58.4107 57.05 59.0527 54.7919L61.5705 45.8565ZM5.49463 60.5523L11.2403 40.1681H21.8637L20.8989 43.62H14.1526L12.8291 48.3016H17.9759L17.0003 51.7427H11.8536L10.3437 57.1076H17.3733L16.4014 60.5523H5.49463ZM29.3273 40.1537L25.2171 54.7308C24.672 56.6725 25.314 57.3736 27.1969 57.3736C29.0798 57.3736 30.1486 56.6761 30.701 54.7308L34.8112 40.1537H38.6882L34.4812 55.076C33.2187 59.5634 30.2204 60.8148 26.2321 60.8148C22.2403 60.8148 19.9772 59.5634 21.2468 55.076L25.4538 40.1537H29.3273ZM50.4055 60.5523L49.2112 51.9836C51.5891 51.0308 52.7511 48.974 53.4864 46.3635C54.5157 42.7246 54.114 40.1681 49.3009 40.1681H46.7903H42.8989L37.1496 60.5882H41.041L43.3041 52.559H45.2409L46.2487 60.5523H50.4055ZM45.5099 43.602H48.1998C50.3661 43.602 50.2979 44.8677 49.8747 46.3599C49.4551 47.8521 48.8059 49.125 46.6396 49.125H43.9497L45.5099 43.602Z" fill="white"/>
</svg>
